usr/share/icons/biglinux-icons-material/scalable/apps/newsflash.svg

<?xml version="1.0" encoding="UTF-8" standalone="no"?>
<!-- Created with Inkscape (http://www.inkscape.org/) -->

<svg
   width="24"
   height="24"
   viewBox="0 0 6.3499999 6.3500002"
   version="1.1"
   id="svg5"
   xml:space="preserve"
   sodipodi:docname="com.gitlab.newsflash.svg"
   inkscape:version="1.3 (0e150ed6c4, 2023-07-21)"
   xmlns:inkscape="http://www.inkscape.org/namespaces/inkscape"
   xmlns:sodipodi="http://sodipodi.sourceforge.net/DTD/sodipodi-0.dtd"
   xmlns:xlink="http://www.w3.org/1999/xlink"
   xmlns="http://www.w3.org/2000/svg"
   xmlns:svg="http://www.w3.org/2000/svg"><sodipodi:namedview
     id="namedview7"
     pagecolor="#ffffff"
     bordercolor="#000000"
     borderopacity="0.25"
     inkscape:showpageshadow="2"
     inkscape:pageopacity="0.0"
     inkscape:pagecheckerboard="0"
     inkscape:deskcolor="#d1d1d1"
     inkscape:document-units="mm"
     showgrid="false"
     inkscape:zoom="18.121928"
     inkscape:cx="7.4219475"
     inkscape:cy="19.120482"
     inkscape:window-width="2560"
     inkscape:window-height="998"
     inkscape:window-x="0"
     inkscape:window-y="0"
     inkscape:window-maximized="1"
     inkscape:current-layer="svg5" /><defs
     id="defs2"><linearGradient
       inkscape:collect="always"
       id="linearGradient12591"><stop
         style="stop-color:#f68e15;stop-opacity:1"
         offset="0"
         id="stop12587" /><stop
         style="stop-color:#ffffff;stop-opacity:1"
         offset="1"
         id="stop12589" /></linearGradient><linearGradient
       inkscape:collect="always"
       xlink:href="#linearGradient12591"
       id="linearGradient12593"
       x1="189.88344"
       y1="407.11221"
       x2="177.27101"
       y2="-526.20648"
       gradientUnits="userSpaceOnUse" /><linearGradient
       inkscape:collect="always"
       xlink:href="#linearGradient12591"
       id="linearGradient12942"
       gradientUnits="userSpaceOnUse"
       x1="189.88344"
       y1="407.11221"
       x2="177.27101"
       y2="-526.20648" /></defs><g
     id="g192-1"
     transform="matrix(0.0153286,0,0,0.0153286,0.26458557,0.26457559)"
     style="fill:url(#linearGradient12593);fill-opacity:1;stroke-width:23.0144"
     inkscape:export-filename="g192.svg"
     inkscape:export-xdpi="24.269279"
     inkscape:export-ydpi="24.269279"><path
       d="m 148.375,1.961 c 2.07,0.023 4.047,-0.242 5.93,-0.789 24.785,-1.625 49.566,-1.559 74.343,0.195 22.469,1.75 44.219,6.625 65.25,14.625 34.965,14.395 58.887,39.36 71.774,74.899 7.367,21.398 11.719,43.402 13.051,66.007 1.839,28.391 1.179,56.715 -1.981,84.981 -2.363,19.867 -7.504,38.969 -15.422,57.312 -14.683,31.801 -38.472,53.739 -71.375,65.809 -26.664,9.008 -54.082,13.754 -82.254,14.23 C 176,380.879 144.633,378.508 113.574,372.117 56.414,359.387 21.156,324.535 7.793,267.574 2.125,241.93 -0.445,215.977 0.082,189.707 -0.551,161.773 2.418,134.238 8.98,107.098 22.988,53.84 56.797,20.836 110.414,8.086 122.906,5.035 135.559,2.992 148.375,1.961 Z"
       style="fill:url(#linearGradient12942);fill-opacity:1;fill-rule:evenodd;stroke:none;stroke-width:23.0144"
       id="path194-8" /></g><path
     d="M 2.8760527,1.2318421 H 3.9223682 L 3.2497363,2.7265791 H 4.221316 L 2.5023686,5.1181579 H 2.2781576 L 2.8760527,3.3244737 H 2.128684 Z"
     fill="#ffffff"
     id="path12572"
     style="stroke-width:3.44004" /></svg>

<svg xmlns="http://www.w3.org/2000/svg" xmlns:xlink="http://www.w3.org/1999/xlink" xml:space="preserve" width="24" height="24" viewBox="0 0 6.35 6.35"><defs><linearGradient id="a"><stop offset="0" style="stop-color:#f68e15;stop-opacity:1"/><stop offset="1" style="stop-color:#fff;stop-opacity:1"/></linearGradient><linearGradient xlink:href="#a" id="b" x1="189.883" x2="177.271" y1="407.112" y2="-526.206" gradientUnits="userSpaceOnUse"/><linearGradient xlink:href="#a" id="c" x1="189.883" x2="177.271" y1="407.112" y2="-526.206" gradientUnits="userSpaceOnUse"/></defs><g style="fill:url(#b);fill-opacity:1;stroke-width:23.0144"><path d="M148.375 1.961c2.07.023 4.047-.242 5.93-.789a545.854 545.854 0 0 1 74.343.195c22.469 1.75 44.219 6.625 65.25 14.625 34.965 14.395 58.887 39.36 71.774 74.899a246.354 246.354 0 0 1 13.051 66.007 482.597 482.597 0 0 1-1.981 84.981c-2.363 19.867-7.504 38.969-15.422 57.312-14.683 31.801-38.472 53.739-71.375 65.809-26.664 9.008-54.082 13.754-82.254 14.23-31.691 1.649-63.058-.722-94.117-7.113-57.16-12.73-92.418-47.582-105.781-104.543a328.944 328.944 0 0 1-7.711-77.867 319.253 319.253 0 0 1 8.898-82.609C22.988 53.84 56.797 20.836 110.414 8.086a241.29 241.29 0 0 1 37.961-6.125Z" style="fill:url(#c);fill-opacity:1;fill-rule:evenodd;stroke:none;stroke-width:23.0144" transform="matrix(.01533 0 0 .01533 .265 .265)"/></g><path fill="#fff" d="M2.876 1.232h1.046L3.25 2.727h.971L2.502 5.118h-.224l.598-1.794H2.13Z" style="stroke-width:3.44004"/></svg>
